X:480
T:Vallpigan
R:Vals
O:Gästrikland
S:efter Karl Lindblad
S:efter Gustaf Jernberg
M:3/4
L:1/16
K:ADor
A2c2|:e4 e2f2 d2f2|e6 c2A2c2|B2A2 ^G2A2 B2c2|A2^G2 A2B2 c2d2|
      e4 e2f2 d2f2|e6 c2A2c2|B2e2 ^d2e2 B2^G2|A8 A2c2::
e4 e2^d2 e2f2|=g4 g2b2 g4|f2e2 ^d2e2 f2g2|B2^d2 f2a2 g2f2|e2^d2 e2b2 f2d2|
e6 B2c4|B2A2 ^G2A2 B2c2|E2^G2 B2=d2 c2B2|A2^G2 A2e2 B2G2|A8 A2c2::
c6 B2A2c2|B8E4|E2F2 ^G2A2 B2c2|d6 c2B2d2|
c6 B2A2c2|B8E4|E2F2 ^G2A2 B2c2|1 A8 A2B2:|2 A8|]
(:musicend:)

(:music:)
